!! 00006] TT[TB
!! 18, 415)
!!!OTL: Cai Hua
!!!ARE: Asia, China,ÿLiaoning, Changhai
!! Ethnic Group: Han
!! III, 293
!!!SCT: C0157
!!!YEM: Copyright 1995, estate of Helmut Schaffrath.
**kern
*ICvox
*Ivox
*M4/4
*k[f#]
*G:
{8.g
16g
8g
8g
8e
8f#
4e}
=1
{8.g
16g
8g
8g
8e
8f#
4e}
=2
{8r
4ee
8ee
4dd
4dd
=3
4b
4dd
4f#
4e}
=4
{8r
4e
8e
4e
4e
=5
8.e
16e
4g
8B
8d
4B}
=6
{8.B
16d
8B
8d
4B
4d}
=7
{8.B
16d
8B
8d
4B
4d}
=8
{4b
2dd
4f#
=9
2e}
{8r
4ee
8ee
=10
4dd
4dd
4dd
4f#
=11
4b
2dd
8b
8f#
=12
1e}
==
!!!AGN: Xiaodiao, Shike caihua diao. Chang siji huahui
!! Sehr heiter. Tanzcharakter. dass wie Nr. 156
!!    Die letzten beiden Takte werden in der 10. Strophe ersetzt durch:
!!    3__5___3__  6____  ^____  ^__0__0__0__ // ++Vereinzelt Verzierungen.
!!    +++ Grundton wechselt von D nach D!! +++
!!!ONB: ESAC (Essen Associative Code) Database: CHINA
!!!AMT: simple quadruple
!!!AIN: vox
!!!EED: Helmut Schaffrath
!!!EEV: 1.0
*-
